svg/icon-mastodon-light.svg

<?xml version="1.0" encoding="UTF-8" standalone="no"?>
<svg
   xmlns:dc="http://purl.org/dc/elements/1.1/"
   xmlns:cc="http://creativecommons.org/ns#"
   xmlns:rdf="http://www.w3.org/1999/02/22-rdf-syntax-ns#"
   xmlns:svg="http://www.w3.org/2000/svg"
   xmlns="http://www.w3.org/2000/svg"
   xmlns:sodipodi="http://sodipodi.sourceforge.net/DTD/sodipodi-0.dtd"
   xmlns:inkscape="http://www.inkscape.org/namespaces/inkscape"
   aria-labelledby="simpleicons-mastodon-icon"
   role="img"
   viewBox="0 0 32 32"
   version="1.1"
   id="svg5"
   sodipodi:docname="logo-mastodon.svg"
   width="32"
   height="32"
   inkscape:version="0.92.4 (unknown)">
  <metadata
     id="metadata11">
    <rdf:RDF>
      <cc:Work
         rdf:about="">
        <dc:format>image/svg+xml</dc:format>
        <dc:type
           rdf:resource="http://purl.org/dc/dcmitype/StillImage" />
        <dc:title>Mastodon icon</dc:title>
      </cc:Work>
    </rdf:RDF>
  </metadata>
  <defs
     id="defs9" />
  <sodipodi:namedview
     pagecolor="#ffffff"
     bordercolor="#666666"
     borderopacity="1"
     objecttolerance="10"
     gridtolerance="10"
     guidetolerance="10"
     inkscape:pageopacity="0"
     inkscape:pageshadow="2"
     inkscape:window-width="1366"
     inkscape:window-height="704"
     id="namedview7"
     showgrid="false"
     inkscape:zoom="4.9166667"
     inkscape:cx="54.849656"
     inkscape:cy="10.912274"
     inkscape:window-x="0"
     inkscape:window-y="27"
     inkscape:window-maximized="1"
     inkscape:current-layer="svg5" />
  <title
     id="simpleicons-mastodon-icon">Mastodon icon</title>
  <path
     style="opacity:1;fill:#ffffff;fill-opacity:1;stroke:none;stroke-width:28.42454529;stroke-miterlimit:4;stroke-dasharray:56.8490948, 56.84909480000000315;stroke-dashoffset:0;stroke-opacity:1;paint-order:stroke fill markers"
     d="M 16 0 A 16 16 0 0 0 0 16 A 16 16 0 0 0 16 32 A 16 16 0 0 0 32 16 A 16 16 0 0 0 16 0 z M 15.970703 6 L 16.033203 6 C 18.589191 6.0208335 21.050955 6.2967048 22.484375 6.9550781 C 22.484375 6.9550781 25.328125 8.2278099 25.328125 12.566406 C 25.328125 12.566406 25.3625 15.767312 24.931641 17.988281 C 24.657457 19.3992 22.476689 20.944957 19.970703 21.244141 C 18.663958 21.399159 17.375656 21.541016 16.003906 21.478516 C 13.760436 21.37601 11.990234 20.943359 11.990234 20.943359 A 4.5827777 4.5827777 0 0 0 12.029297 21.564453 C 12.320982 23.779586 14.225021 23.910976 16.029297 23.972656 C 17.849407 24.034326 19.470703 23.523438 19.470703 23.523438 L 19.544922 25.169922 C 19.544922 25.169922 18.272377 25.855461 16.003906 25.980469 C 14.752997 26.049639 13.199068 25.949065 11.390625 25.470703 C 7.4678873 24.432306 6.7927931 20.251404 6.6894531 16.007812 C 6.6577841 14.748571 6.6777344 13.559799 6.6777344 12.566406 C 6.6777344 8.22781 9.5195312 6.9550781 9.5195312 6.9550781 C 10.952951 6.2967048 13.413882 6.020838 15.970703 6 z M 13.076172 9.390625 C 12.155283 9.390625 11.414357 9.7139988 10.847656 10.345703 C 10.298457 10.976576 10.025391 11.830066 10.025391 12.904297 L 10.025391 18.15625 L 12.107422 18.15625 L 12.107422 13.056641 C 12.107422 11.982409 12.55867 11.4375 13.462891 11.4375 C 14.462951 11.4375 14.964844 12.083203 14.964844 13.363281 L 14.964844 16.15625 L 17.035156 16.15625 L 17.035156 13.365234 C 17.035156 12.085157 17.537048 11.4375 18.537109 11.4375 C 19.44133 11.4375 19.892578 11.983528 19.892578 13.058594 L 19.892578 18.158203 L 21.972656 18.158203 L 21.972656 12.904297 C 21.972656 11.830066 21.700711 10.976576 21.152344 10.345703 C 20.585643 9.7139988 19.843885 9.390625 18.923828 9.390625 C 17.858764 9.390625 17.050944 9.7999253 16.517578 10.619141 L 16 11.488281 L 15.482422 10.619141 C 14.949057 9.7999253 14.141237 9.390625 13.076172 9.390625 z "
     id="path818" />
</svg>

<svg width="32" height="32" aria-labelledby="simpleicons-mastodon-icon" role="img" version="1.1" viewBox="0 0 32 32" xmlns="http://www.w3.org/2000/svg"><path d="m16 0a16 16 0 0 0-16 16 16 16 0 0 0 16 16 16 16 0 0 0 16-16 16 16 0 0 0-16-16zm-0.0293 6h0.0625c2.56 0.0208 5.02 0.297 6.45 0.955 0 0 2.84 1.27 2.84 5.61 0 0 0.0344 3.2-0.396 5.42-0.274 1.41-2.45 2.96-4.96 3.26-1.31 0.155-2.6 0.297-3.97 0.234-2.24-0.103-4.01-0.535-4.01-0.535a4.58 4.58 0 0 0 0.0391 0.621c0.292 2.22 2.2 2.35 4 2.41 1.82 0.0617 3.44-0.449 3.44-0.449l0.0742 1.65s-1.27 0.686-3.54 0.811c-1.25 0.0692-2.8-0.0314-4.61-0.51-3.92-1.04-4.6-5.22-4.7-9.46-0.0317-1.26-0.0117-2.45-0.0117-3.44 0-4.34 2.84-5.61 2.84-5.61 1.43-0.658 3.89-0.934 6.45-0.955zm-2.89 3.39c-0.921 0-1.66 0.323-2.23 0.955-0.549 0.631-0.822 1.48-0.822 2.56v5.25h2.08v-5.1c0-1.07 0.451-1.62 1.36-1.62 1 0 1.5 0.646 1.5 1.93v2.79h2.07v-2.79c0-1.28 0.502-1.93 1.5-1.93 0.904 0 1.36 0.546 1.36 1.62v5.1h2.08v-5.25c0-1.07-0.272-1.93-0.82-2.56-0.567-0.632-1.31-0.955-2.23-0.955-1.07 0-1.87 0.409-2.41 1.23l-0.518 0.869-0.518-0.869c-0.533-0.819-1.34-1.23-2.41-1.23z" fill="#fff" style="paint-order:stroke fill markers"/></svg>
